!!!OTL: TANZ LIEBCHEN TANZ
!!!ARE: Europa, Mitteleuropa, Deutschland; France, Elsass, Schweighausen
!!!SCT: E0838A
!!!YEM: Copyright 1995, estate of Helmut Schaffrath.
**kern
*ICvox
*Ivox
*M2/4
*k[f#c#]
*D:
=1
{4A
8.d
16B
=2
4A
8r}
{8A
=3
8.B
16A
8G
8F#
=4
4E
8r}
{8E
=5
8.E
16F#
8.G
16A
=6
4B
8B
16r}
{16d
=7
8.c#
16c#
8B
8c#
=8
4d
8r}
{8A
=9
8.F#
16A
8A
8A
=10
8F#
8A
8A}
{8A
=11
8.F#
16A
8A
8A
=12
8F#
8A
8A}
{8A
=13
4B
4c#
=14
4d
8r}
{8A
=15
8.F#
16A
8A
8A
=16
8F#
8A
8A}
{8A
=17
8.F#
16A
8A
8A
=18
8F#
8A
8A}
{8A
=19
4B
4c#
=20
4d
4r}
==
!!!AGN: Hochzeits -, Ehestands - Lied
!!!ONB: ESAC (Essen Associative Code) Database: ERK2
!!!AMT: simple duple
!!!AIN: vox
!!!EED: Helmut Schaffrath
!!!EEV: 1.0
*-
